X:9
T:Joe Confiant's Reel
R:reel
D:Joe Confiant, Off to George's River
Z:Paul Stewart Cranford (P.S.C.), <http://www.cranfordpub.com>
Q:333
L:1/8
M:C|
K:A
ceAe ce A2|fefg a2ed|ceAe ceAc|B2 EB GBEB|
ceAe ce Ae|fagb a2 ec|dfed cABG|E2 A2 A2 z2:|
|:aece Aece|aece Aece|abga fgec|B2 EB GBEe|
afge fdec|dfed c2 BA|dfed cABG|E2 A2 A2 z2:|
